src/22/mimetypes/text-x-c++src.svg

<?xml version="1.0" encoding="UTF-8" standalone="no"?>
<!-- Created with Inkscape (http://www.inkscape.org/) -->

<svg
   xmlns:dc="http://purl.org/dc/elements/1.1/"
   xmlns:cc="http://creativecommons.org/ns#"
   xmlns:rdf="http://www.w3.org/1999/02/22-rdf-syntax-ns#"
   xmlns:svg="http://www.w3.org/2000/svg"
   xmlns="http://www.w3.org/2000/svg"
   xmlns:sodipodi="http://sodipodi.sourceforge.net/DTD/sodipodi-0.dtd"
   xmlns:inkscape="http://www.inkscape.org/namespaces/inkscape"
   width="22"
   version="1.1"
   height="22"
   id="svg2"
   inkscape:version="0.91 r13725"
   sodipodi:docname="text-x-c++src.svg">
  <sodipodi:namedview
     pagecolor="#ffffff"
     bordercolor="#666666"
     borderopacity="1"
     objecttolerance="10"
     gridtolerance="10"
     guidetolerance="10"
     inkscape:pageopacity="0"
     inkscape:pageshadow="2"
     inkscape:window-width="709"
     inkscape:window-height="480"
     id="namedview22"
     showgrid="false"
     inkscape:zoom="10.727273"
     inkscape:cx="0.6059322"
     inkscape:cy="11"
     inkscape:window-x="0"
     inkscape:window-y="0"
     inkscape:window-maximized="0"
     inkscape:current-layer="layer1" />
  <defs
     id="defs3871" />
  <metadata
     id="metadata3874">
    <rdf:RDF>
      <cc:Work
         rdf:about="">
        <dc:format>image/svg+xml</dc:format>
        <dc:type
           rdf:resource="http://purl.org/dc/dcmitype/StillImage" />
      </cc:Work>
    </rdf:RDF>
  </metadata>
  <g
     inkscape:label="Capa 1"
     inkscape:groupmode="layer"
     id="layer1"
     transform="matrix(1 0 0 1 -326 -534.3622)">
    <rect
       width="0"
       x="256.22556"
       y="514.69751"
       height="14.668059"
       style="fill:#1d70f7;fill-opacity:1"
       id="rect4035" />
    <rect
       width="0"
       x="263.18613"
       y="537.26813"
       height="14.668059"
       style="fill:#1d70f7;fill-opacity:1"
       id="rect4035-8" />
    <rect
       width="0"
       x="264.99942"
       y="536.2074"
       height="14.668059"
       style="fill:#1d70f7;fill-opacity:1"
       id="rect4035-0" />
    <rect
       width="0"
       x="256.22556"
       y="514.69751"
       height="14.668059"
       style="fill:#1d70f7;fill-opacity:1"
       id="rect4035-3" />
    <rect
       width="0"
       x="263.18613"
       y="537.26813"
       height="14.668059"
       style="fill:#1d70f7;fill-opacity:1"
       id="rect4035-8-9" />
    <rect
       width="0"
       x="264.99942"
       y="536.2074"
       height="14.668059"
       style="fill:#1d70f7;fill-opacity:1"
       id="rect4035-0-4" />
    <rect
       width="0"
       x="256.22556"
       y="514.69751"
       height="14.668059"
       style="fill:#1d70f7;fill-opacity:1"
       id="rect4035-2" />
    <rect
       width="0"
       x="263.18613"
       y="537.26813"
       height="14.668059"
       style="fill:#1d70f7;fill-opacity:1"
       id="rect4035-8-99" />
    <rect
       width="0"
       x="264.99942"
       y="536.2074"
       height="14.668059"
       style="fill:#1d70f7;fill-opacity:1"
       id="rect4035-0-43" />
    <rect
       width="0"
       x="256.22556"
       y="514.69751"
       height="14.668059"
       style="fill:#1d70f7;fill-opacity:1"
       id="rect4035-3-9" />
    <rect
       width="0"
       x="263.18613"
       y="537.26813"
       height="14.668059"
       style="fill:#1d70f7;fill-opacity:1"
       id="rect4035-8-9-9" />
    <rect
       width="0"
       x="264.99942"
       y="536.2074"
       height="14.668059"
       style="fill:#1d70f7;fill-opacity:1"
       id="rect4035-0-4-4" />
    <path
       style="fill:#1d70f7;stroke-width:2;fill-opacity:1"
       id="rect4421"
       d="M 16 3 L 16 5 L 14 5 L 14 6 L 16 6 L 16 8 L 17 8 L 17 6 L 19 6 L 19 5 L 17 5 L 17 3 L 16 3 z "
       transform="matrix(1 0 0 1 326 534.3622)" />
    <path
       inkscape:connector-curvature="0"
       style="fill:#1d70f7;stroke-width:2;fill-opacity:1"
       id="rect4421-1"
       d="m 336,537.3622 0,2 -2,0 0,1 2,0 0,2 1,0 0,-2 2,0 0,-1 -2,0 0,-2 -1,0 z" />
    <path
       style="fill:#1d70f7;stroke-width:2;fill-opacity:1"
       id="rect4441"
       d="M 4 10 C 3.4459904 10 3 10.44599 3 11 L 3 18 C 3 18.55401 3.4459904 19 4 19 L 11 19 C 11.55401 19 12 18.55401 12 18 L 12 17 L 11 16.445312 L 11 17 C 11 17.55401 10.55401 18 10 18 L 5 18 C 4.4459904 18 4 17.55401 4 17 L 4 12 C 4 11.44599 4.4459904 11 5 11 L 10 11 C 10.55401 11 11 11.44599 11 12 L 11 12.554688 L 12 12 L 12 11 C 12 10.44599 11.55401 10 11 10 L 4 10 z "
       transform="matrix(1 0 0 1 326 534.3622)" />
  </g>
</svg>

<svg xmlns="http://www.w3.org/2000/svg" width="22" height="22"><g fill="#1d70f7" stroke-width="2"><path d="M16 3v2h-2v1h2v2h1V6h2V5h-2V3h-1zM10 3v2H8v1h2v2h1V6h2V5h-2V3h-1zM4 10c-.554 0-1 .446-1 1v7c0 .554.446 1 1 1h7c.554 0 1-.446 1-1v-1l-1-.555V17c0 .554-.446 1-1 1H5c-.554 0-1-.446-1-1v-5c0-.554.446-1 1-1h5c.554 0 1 .446 1 1v.555L12 12v-1c0-.554-.446-1-1-1H4z"/></g></svg>
